X:1
T:Eichendorff-Lieder
T:Das Ständchen
T:Eichendorff-Lieder
T:Hugo Wolf
T:Joseph von Eichendorff
T:4. Das Ständchen
T:OpenScore (CC0)
T:OpenScore (CC0)
T:OpenScore (CC0)
T:OpenScore (CC0)
T:OpenScore (CC0)
T:OpenScore (CC0)
T:OpenScore (CC0)
C:Hugo Wolf
Z:Joseph von Eichendorff
Z:OpenScore (CC0)
%%score 1 { ( 2 3 ) | ( 4 5 ) }
L:1/8
Q:1/4=80
M:3/4
K:D
V:1 treble nm="Voice"
V:2 treble nm="Piano"
V:3 treble 
V:4 bass 
V:5 bass 
V:1
"^Mässig" z6 | z6 | z6 | z6 | z6 | z6 | z6 | z6 |[K:D][K:treble] z2 z2!<(! A3/2 A/ | d3 d d c!<)! | %10
w: ||||||||Auf die|Dä- cher zwi- schen|
w: ||||||||O'er the|si- lent vil- lage|
!mf! =c4!p! B2 | _B4 d2 | A3 A A2- | A A A4 | z2 z2!<(! A A | d2 A2 G F!<)! |!mf! E2 D2!p! D2- | %17
w: blas- sen|Wol- ken|schaut der Mond|* her- für,|ein Stu-|dent dort auf der|Gas- sen singt|
w: dream- ing,|shines the|moon from heav'n|* a- bove.|Neath her|win- dow bright- ly|gleam- ing, sings|
 D3 E (FA- | A) B A3 F | A4 z2 | z2 C2!<(! C2 | ^^C3 C!<)!!mf! C2- | C!mp! ^D!p! B4 | %23
w: * vor sei- *|* ner Lieb- sten|Tür.|Und die|Brun- nen rau-|* schen wie-|
w: * a min- *|* strel to his|love.|And the|fount- ains' sil-|* vry plash-|
!<(! B2 ^A2 ^G2!<)! |!>(! c4 ^G2!>)! |!p! ^G4 ^^G2 | ^A2 z C2!<(! C | ^^C3 C!<)!!mf! C2- | %28
w: der durch die|stil- le|Ein- sam-|keit und der|Wald vom Ber-|
w: ing through the|so- li-|tude of|night, and the|for- est trees'|
 C!p! D F4 |!<(! F2 F2 ^G2!<)! |!mf!!>(! (^A2 ^c4-!>)! | %31
w: * ge nie-|der, wie in|al- *|
w: * soft rustl-|ing call back|days *|
[Q:1/4=75]"^rit." c!p![Q:1/4=70]"^rit." =c[Q:1/4=65]"^rit." _e3 _d/c/ | %32
w: * ter, schö- ner *|
w: * of sweet de- *|
[Q:1/4=80]"^a tempo" _B4) z2 | z!<(! d2 d!<)!!mf! d d |!mp! (d/=c/) (c/_B/) _e4- | %35
w: Zeit.|So in mei- nen|jun- * gen * Ta-|
w: light.|Sad- ly now my|soul * re- * mem-|
 e!<(! _e d2 =c2!<)! |!mf!!>(! =c4 _g2!>)! |!p! =f4 ^c2 | d2 d2!<(! d2 | d3 d!<)!!mf! =c _B | %40
w: * gen hab' ich|man- che|Som- mer-|nacht auch die|Lau- te hier ge-|
w: * bers many a|glor- ious|sum- mer|night, when my|thoughts, in heart- felt|
!p! (_B>_e) e4 | z2!<(! _e2 e2!<)! |!mf! d!>(! =f ^c3 d!>)! |!p! _B4 z2 | z6 | z6 | z2 z2!<(! A2- | %47
w: schla- * gen|und manch|lust' ges Lied er-|dacht.|||A-|
w: num- * bers,|ming- led|with the voice of|night.|||Ah,|
 A A A A ^A A | =c!<)! c!mf! c2!p! B2 | %49
w: * ber von der stil- len|Schwel- le tru- gen|
w: * cold Death, that knows not|pi- ty, snatched from|
 _B B[Q:1/4=75]"^rit." d3[Q:1/4=60]"^rit." F[Q:1/4=70]"^rit."[Q:1/4=65]"^rit." | %50
w: sie mein Lieb zur|
w: Earth her fair\-- est|
[Q:1/4=80]"^a tempo" A6- | A4 z2 | z6 |!p! z!<(! d2 d c c | =c c!<)! c2 B2 | %55
w: Ruh',|||und du, fröh- li-|cher Ge- sel- le,|
w: flower,|||but thou, min- strel,|sing thy dit- ty,|
[Q:1/4=75]"^etwas zurückhaltend" _B d[Q:1/4=70]"^rit." d3 F[Q:1/4=65]"^rit." | A e d4- | %57
w: sin- ge, sing' nur|im- mer zu!|
w: bid it soar to|love's~ sweet~ bower!|
[Q:1/4=80]"^a tempo" d4 z2 | z6 | z2 A3 A | A2 z2 z2 | %61
w: ||sing' nur|zu,|
w: ||sing, sing|on!|
 z2!p![Q:1/4=77]"^rit." A3[Q:1/4=68]"^rit." e[Q:1/4=74]"^rit."[Q:1/4=71]"^rit." | %62
w: im- mer-|
w: sing, sing|
[Q:1/4=80]"^a tempo" d6- | d2 z2 z2 | z6 | z6 | z6 |] %67
w: zu!|||||
w: on!|||||
V:2
 z!p! A =f(e/f/ e)a | z A =f(e/f/ e)a | z!mf! [Ae]2 [DA]2 [Ae]- |!>(! [Ae] [DA]2 [Ae]2 [DA]-!>)! | %4
!p! [DA]6 |!f! !>![Acea] z z2 z2 | z2 z2!p! !arpeggio![Adfa] z | z2 z2 !arpeggio![Adfa] z | %8
 z3/2"_dolce" (A/ .f2!<(! .f2 | .f2 .f2 .f2 | .f2!<)!!mf! .f2)!p! (a/g/) (g/f/) | g2 (_Bg f2) | %12
 (eA d4-) | d4 z2 | z3/2 (A/ .f2!<(! .f2 | .f2 .f2 .f2 | .f2!<)!!mf! .f2)!p! (a/g/) (g/f/) | %17
 g2 (_Bg f2) | (eA d4-) | d4 z2 |!p! z3/2 (c/ .^a2!<(! .a2 | .^a2 .a2!<)!!mf! .a2) | %22
!p! (^a/^g/) (g/f/) (!tenuto!^^c4- |!<(! c3 ^d ^g2-!<)! |!>(! g3 ^a/^g/ ^^c2)!>)! | %25
!pp! (^a/^g/) (a/g/ =d3 ^c) |!p! z3/2 (c/ .^a2!<(! .a2 | .^a2 .a2!<)!!mf! .a2) | %28
!p! (^a/^g/) (g/f/) (!tenuto!^^c4- |!<(! c3 ^d (f2)!<)! |!mf! _g)!>(! (g/=f/ =A3!>)! _B) | %31
!p!"^rit." (_d/=c/) (d/c/!>(! _G3!>)!!pp! A) |!p!"^a tempo" z3/2 (=f/ .=d'2!<(! .d'2!<)! | %33
!<(! .d'2 .d'2!<)!!mf! .d'2) |!p! (d'/=c'/) (c'/_b/) (!>!^f4- |!<(! f3 g =c'2-!<)! | %36
!>(! =c'3 d'/c'/ _g2)!>)! |!pp! (d'/=c'/) (d'/c'/ _g3 =f) |!p! z3/2 (=f/ .d'2!<(! .d'2 | %39
 .d'2 .d'2!<)!!mf! .d'2) |!p! (d'/=c'/) (c'/_b/) (^f4- |!<(! f3 g _b2-)!<)! | %42
!mf! _b!>(! (_b/a/ ^c3 d)!>)! |!pp! (=f/e/) (f/e/ _B3 ^c) |!p! z2 z2 !arpeggio![Ad^fa] z | %45
 z2 z2 !arpeggio![Adfa] z | z3/2!p! (A/ .f2!<(! .f2 | .f2 .f2 .f2 | %48
 .f2!<)!!mf! .f2)!p! ((a/g/)) (g/f/) | g2 (_Bg f2) | (eA d4-) | d4 z2 |!p! z3/2 (A/ .f2!<(! .f2 | %53
 .f2 .f2 .f2 | .f2!<)!!mf! .f2)!p! ((a/g/)) (g/f/) | g2 (_Bg f2) | (eA d4-) | d4 z2 | %58
!mf! z A f (e/f/ d).B |"_dim." cB [Aa] (3(g/a/g/ f) (3(e/f/e/ |!p! d) .A .f(e/f/ d) (3(B/c/B/ | %61
 c)B [Aa]"^etwas zurückhaltend" (3(g/a/g/(3f/g/f/(3e/f/e/ | d) z z2 [bd']2 | %63
 [fd'f'] z/ (A,/ [DF]2) [DF]2 | [DF]6- | [DF]6- | [DF]6 |] %67
V:3
 x GGG G2 | x GGG G2 | x6 | x6 | x6 | x6 | x6 | x6 | x6 | x6 | x6 | x6 | G2 F z z2 | x6 | x6 | x6 | %16
 x6 | x6 | G2 F z z2 | x6 | x6 | x6 | x6 | x6 | x6 | x6 | x6 | x6 | x6 | x6 | x6 | x6 | x6 | x6 | %34
 x6 | x6 | x6 | x6 | x6 | x6 | x6 | x6 | x6 | x6 | x6 | x6 | x6 | x6 | x6 | x6 | (G2 F) z z2 | x6 | %52
 x6 | x6 | x6 | x6 | (G2 F) z z2 | x6 | x6 | x6 | x6 | x6 | x6 | x6 | x6 | x6 | x6 |] %67
V:4
!ped! [G,,D,][G,,D,] [D,A,][D,A,] [A,E]2!ped-up! | %1
!ped! [G,,D,][G,,D,] [D,A,][D,A,] [A,E]2!ped-up! |!ped! [G,,D,]2 [A,E]2 [G,,D,]2 | %3
 [A,E]2 [G,,D,]2 [A,E]2!ped-up! | [A,E]6 |!ped! !arpeggio!!>![A,CEG] z z2 z2!ped-up! | %6
 D, A,F(E/F/) DA, | D, A,F(E/F/) DA, | D,, A,!pp!F(E/F/) DA, | D, A,F(E/F/) D^A, | %10
 D, =CA(^G/A/) DB, | D, _B,E(^D/E/) =DA, | A,,A, D, (E/F/)DA, | D, A,F(E/F/) DA, | %14
 !tenuto!D,,!pp! A,F(E/F/) DA, | D, A,F(E/F/) D^A, | D, =CA(^G/A/) DB, | D, _B,E(^D/E/) =DA, | %18
 A,,A, D, (E/F/)DA, | D, A,F(E/F/) DA, |[K:treble] !tenuto!F, C^A(^G/A/) FC | F, ^^C^A(^G/A/) FC | %22
 F, ^DB(^A/B/) FD | F, ^D^B(=B/^B/) FD | F, ^D=B(^A/B/) F^^C | F, =DB(^A/B/) ^E^C | %26
 F, C^A(^G/A/) FC |!pp! F, ^^C^A(^G/A/) FC | F, ^DB(^A/B/) FD | F, ^DB(^A/B/) FD | %30
 =F, _B,_G(=F/G/) F_D |[K:bass] =F,, =A,_E(=D/E/) =C=F | _B,,[K:treble] =F=d(^c/d/) _BF | %33
 _B, ^Fd(c/d/) _BF | _B, G_e(d/e/) _BG | _B, G=e(^d/e/) _BG | _B, _G_e(d/e/) _BG | %37
 _B, =F_e(d/e/) AF | _B, =Fd(^c/d/) _BF |!pp! _B, ^Fd(c/d/) _BF | _B, G_e(d/e/) _BG | %41
 _B, G_e(d/e/) _BG | A, D_B(A/B/) A=F |[K:bass] A,, CG(^F/G/) EA | D, A,F(E/F/) DA, | %45
 D, A,F(E/F/) (DA,) | D,,!pp! A,F(E/F/) DA, | D, A,F(E/F/) D^A, | D, =CA(^G/A/) DB, | %49
 D, _B,"^rit."E(^D/E/) =DA, |"^a tempo" A,,A, D, (E/F/)DA, | D, A,F(E/F/) DA, | D,, A,F(E/F/) DA, | %53
 D, A,F(E/F/) D^A, | D, =CA(^G/A/) DB, | D, _B,E(^D/E/) =DA, | A,,A, D, (E/F/)DA, | %57
 D, A,F(E/F/) DA, | .D,.A,.B,.C.D.=F | .[A,E].[A,D].[A,C].[A,B].[A,A].[A,G] | %60
 .[D,F] .A,.B,.C.D.=F | x (3D/E/D/ C x3 | [DF] z/[K:treble]!pp! (A/ [df]2) [Gdf]2 | %63
"^verklingend" [DAd] z z2[K:bass] [G,B,]2 | A,6- |!ppp! [D,A,]6- | [D,A,]6 |] %67
V:5
 x6 | x6 | x6 | x6 | x6 | x6 | x6 | x6 | x6 | x6 | x6 | x6 | x6 | x6 | x6 | x6 | x6 | x6 | x6 | %19
 x6 |[K:treble] x6 | x6 | x6 | x6 | x6 | x6 | x6 | x6 | x6 | x6 | x6 |[K:bass] x6 | %32
 x[K:treble] x5 | x6 | x6 | x6 | x6 | x6 | x6 | x6 | x6 | x6 | x6 |[K:bass] x6 | x6 | x6 | x6 | %47
 x6 | x6 | x6 | x6 | x6 | x6 | x6 | x6 | x6 | x6 | x6 | x6 | x6 | x6 | %61
 [A,E] A,A, .[A,B].[A,A].[A,G] | x3/2[K:treble] x9/2 | x4[K:bass] x2 | D,6- | [D,,A,,] z z2 z2 | %66
 [D,,A,,] z z2 z2 |] %67

